**kern
*I"Piano, Piano right
*clefG2
*k[]
*M4/4
*met(c)
=1
[16cLL [16cc
16cJ] 16cc_
[16gL 16cc_
16gJJ] 16cc_
[16eLL 16cc_
16eJ] 16cc_
[16gL 16cc_
16gJJ] 16cc]
[16cLL [16ee
16cJ] 16ee_
[16gL 16ee_
16gJJ] 16ee]
[16eLL [16gg
16eJ] 16gg_
[16gL 16gg_
16gJJ] 16gg]
=2
[16dLL [16b
16dJ] 16b_
[16gL 16b_
16gJJ] 16b_
[16fLL 16b_
16fJ] 16b]
[16gL 16cc
16gJJ] 16dd
[16cLL [16cc
16cJ] 16cc_
[16gL 16cc_
16gJJ] 16cc]
[16eLL
16eJ]
[16gL
16gJJ]
=3
[16cLL [16aa
16cJ] 16aa_
[16aL 16aa_
16aJJ] 16aa_
[16fLL 16aa_
16fJ] 16aa_
[16aL 16aa_
16aJJ] 16aa]
[16cLL [16gg
16cJ] 16gg_
[16gL 16gg_
16gJJ] 16gg]
[16eLL [16ccc
16eJ] 16ccc_
[16gL 16ccc_
16gJJ] 16ccc]
=4
[16BLL [16gg
16BJ] 16gg_
[16gL 16gg_
16gJJ] 16gg]
[16dTLL [16ff
16dTJ] 16ff]
[16gL 16ee
16gJJ] 16ff
[16cLL [16ee
16cJ] 16ee_
[16gL 16ee_
16gJJ] 16ee]
[16eLL
16eJ]
[16gL
16gJJ]
=5
[16fLL [16a
16fJ_ 16a]
16fL_ 16b
16fJJ] 16cc
16ddLL
16eeJ
16ffL
16ggJJ
16aaLL
16ggJ
16ffL
16eeJJ
[16FLL [16c 16dd
16FJ_ 16c_ 16cc
16FL_ 16c_ 16b
16FJJ] 16c] 16a
=6
[16ELL [16c [16g
16EJ_ 16c_ 16g]
16EL_ 16c_ 16a
16EJJ] 16c] 16b
16ccLL
16ddJ
16eeL
16ffJJ
16ggLL
16ffJ
16eeL
16ddJJ
[16ELL [16c 16cc
16EJ_ 16c_ 16b
16EL_ 16c_ 16a
16EJJ] 16c] 16g
=7
[16DLL [16c [16f
16DJ_ 16c_ 16f]
16DL_ 16c_ 16g
16DJJ] 16c] 16a
16bLL
16ccJ
16ddL
16eeJJ
16ffLL
16eeJ
16ddL
16ccJJ
[16DLL [16B 16b
16DJ_ 16B_ 16a
16DL_ 16B_ 16g
16DJJ] 16B] 16f
=8
[16CLL [16c [16e
16CJ_ 16c_ 16e]
16CL_ 16c_ 16f
16CJJ] 16c] 16g
16aLL
16bJ
16ccL
16ddJJ
16eeLL
16ddJ
16ccL
16bJJ
[16CLL [16E 16a
16CJ_ 16E_ 16g
16CL_ 16E_ 16f
16CJJ] 16E] 16e
=9
[16FLL [16A [16d
16FJ_ 16A_ 16d]
16FL_ 16A_ 16e
16FJJ_ 16A_ 16f
16FLL_ 16A_ 16g
16FJ_ 16A_ 16a
16FL_ 16A_ 16b
16FJJ_ 16A_ 16cc#X
16FLL_ 16A_ 16dd
16FJ_ 16A_ 16a
16FL_ 16A_ 16b
16FJJ_ 16A_ 16cc#X
16FLL_ 16A_ 16dd
16FJ_ 16A_ 16ee
16FL_ 16A_ 16ff
16FJJ] 16A] 16gg
=10
[16FLL 16aa
16FJ_ 16bb
16FL_ 16ccc
16FJJ_ 16bb
16FLL_ 16aa
16FJ] 16gg
[16GL 16ff
16GJJ] 16ee
[16ALL 16ff
16AJ_ 16gg
16AL_ 16aa
16AJJ_ 16gg
16ALL_ 16ff
16AJ] 16ee
[16F#XL 16dd
16F#JJ] 16cc
=11
16GGLL [16b
16BBJ 16b]
16DL [16gg
16GJJ 16gg]
16GGLL [16ee
16CJ 16ee]
16EL [16cc
16GJJ 16cc]
16GGLL [16dd
16BBJ 16dd]
16DL [16gg
16GJJ 16gg]
16GGLL [16ee
16CJ 16ee]
16EL [16cc
16GJJ 16cc]
=12
[16GGLL [16dd
16GGJ_ 16dd_
16GGL_ 16dd_
16GGJJ] 16dd]
[16GLL [16b [16dd [16gg
16GJ_ 16b_ 16dd_ 16gg_
16GL_ 16b_ 16dd_ 16gg_
16GJJ] 16b] 16dd] 16gg]
[16GGLL [16g
16GGJ_ 16g_
16GGL_ 16g_
16GGJJ] 16g]
4r
=13
16c#XLL
16dJ
16c#XL
16dJJ
16c#XLL
16dJ
16c#XL
16dJJ
16cnLL
16dJ
16cL
16dJJ
16cLL
16dJ
16cL
16dJJ
=14
16BLL [16ddd
16dJ 16ddd]
16BL [16bb
16dJJ 16bb]
16BLL [16gg
16dJ 16gg_
16BL 16gg_
16dJJ 16gg_
16BLL 16gg_
16dJ 16gg]
16BL 16aa
16dJJ 16bb
16BLL [16aa
16dJ 16aa]
16BL [16gg
16d`JJ 16gg]
=15
16cTLL [16gg
16dTJ 16gg_
16BtL 16gg]
16dJJ 16ff#X
16ALL [16ff#
16dJ 16ff#_
16BL 16ff#_
16dJJ 16ff#]
16cLL
16dJ
16BL
16dJJ
16cLL
16dJ
16AL
16dJJ
=16
16BLL [16ddd
16dJ 16ddd]
16BL [16bb
16dJJ 16bb]
16BLL [16gg
16dJ 16gg_
16BL 16gg_
16dJJ 16gg_
16BLL 16gg_
16dJ 16gg]
16BL 16aa
16dJJ 16bb
16BLL [16aa
16dJ 16aa]
16BL [16gg
16d`JJ 16gg]
=17
16cTLL [16gg
16dTJ 16gg_
16BtL 16gg]
16dJJ 16ff#X
16ALL [16ff#
16dJ 16ff#_
16BL 16ff#_
16dJJ 16ff#]
16cLL
16dJ
16BL
16dJJ
16cLL
16dJ
16AL
16dJJ
=18
[16dddLL
16BJ 16ddd_
16dL 16ddd_
16gJJ 16ddd]
[16bLL
16bJ_ 16ddd
16bL_ 16bb
16bJJ] 16gg
[16eeLL
16cJ 16ee_
16eL 16ee_
16gJJ 16ee]
[16ccLL
16ccJ_ 16ee
16ccL_ 16gg
16ccJJ] 16ee
=19
[16cccLL
16AJ 16ccc_
16cL 16ccc_
16f#XJJ 16ccc]
[16aLL
16aJ_ 16ccc
16aL_ 16aa
16aJJ] 16ff#X
[16ddLL
16BJ 16dd_
16dL 16dd_
16f#XJJ 16dd]
[16bLL
16bJ_ 16dd
16bL_ 16ff#X
16bJJ] 16dd
=20
[16bbLL
16GJ 16bb_
16BL 16bb_
16eJJ 16bb]
[16gLL
16gJ_ 16bb
16gL_ 16gg
16gJJ] 16ee
[16ccLL
16AJ 16cc_
16cL 16cc_
16eJJ 16cc]
[16aLL
16aJ_ 16cc
16aL_ 16ee
16aJJ] 16cc
=21
[16aaLL
16F#XJ 16aa_
16AL 16aa_
16dJJ 16aa]
[16f#XLL
16f#J_ 16aa
16f#L_ 16ff#X
16f#JJ] 16dd
[16bLL
16GJ 16b_
16BL 16b_
16dJJ 16b]
[16gLL
16gJ_ 16gg
16gL_ 16dd
16gJJ] 16b
=22
[16cLL [16e [16a
16cJ] 16e] 16a_
[16cL [16e 16a_
16cJJ] 16e] 16a_
[16cLL [16e 16a_
16cJ] 16e] 16a_
[16cL [16e 16a_
16cJJ] 16e] 16a]
[16cLL [16e 16b [16cc
16cJ] 16e] 16cc_
[16cL [16e 16cc_
16cJJ] 16e] 16cc]
[16cLL [16e 16dd#X [16ee
16cJ] 16e] 16ee_
[16cL [16e 16ee_
16cJJ] 16e] 16ee]
=23
[16cLL [16e 16gg#X [16aa
16cJ] 16e] 16aa_
[16cL [16e 16aa_
16cJJ] 16e] 16aa_
[16cLL [16e 16aa_
16cJ] 16e] 16aa]
[32cLL [32e 32bb
32c_ 32e_ 32aa
32c_ 32e_ 32gg#X
32cJJJ] 32e] 32aa
[16cLL [16e [16ccc
16cJ] 16e] 16ccc]
[16cL [16e [16aa
16cJJ] 16e] 16aa]
[16cLL [16e [16ccc
16cJ] 16e] 16ccc]
[16cL [16e [16aa
16cJJ] 16e] 16aa]
=24
16dLL [16bb
16bJ 16bb]
16gL [16gg
16bJJ 16gg]
16dLL [16ddd
16bJ 16ddd_
16gL 16ddd_
16bJJ 16ddd_
16dLL 16ddd_
16bJ 16ddd_
16gL 16ddd_
16bJJ 16ddd]
16dLL 16ccc
16bJ 16bb
16gL 16aa
16bJJ 16gg
=25
16dTLL [16aa
16ccTJ 16aa_
16f#XtL 16aa_
16ccTJJ 16aa_
16dTLL 16aa_
16ccTJ 16aa_
16f#XtL 16aa_
16ccTJJ 16aa_
16dTLL 16aa_
16ccTJ 16aa_
16f#XtL 16aa_
16ccTJJ 16aa_
16dTLL 16aa_
16ccTJ 16aa_
16f#XtL 16aa_
16ccTJJ 16aa]
=26
[16gLL [16b [16gg
16gJ_ 16b_ 16gg_
16gL_ 16b_ 16gg_
16gJJ] 16b] 16gg]
16ggLL
16ddJ
16ggL
16bbJJ
16dddLL
16bbJ
16ggL
16bbJJ
[16dLL [16a [16cc 16ccc
16dJ_ 16a_ 16cc_ 16aa
16dL_ 16a_ 16cc_ 16ff#X
16dJJ] 16a] 16cc] 16aa
=27
[16gLL [16b [16gg
16gJ_ 16b_ 16gg_
16gL_ 16b_ 16gg_
16gJJ] 16b] 16gg]
16gLL
16dJ
16gL
16bJJ
16ddLL
16bJ
16gL
16bJJ
[16DLL [16A [16c 16cc
16DJ_ 16A_ 16c_ 16a
16DL_ 16A_ 16c_ 16f#X
16DJJ] 16A] 16c] 16a
=28
[16GLL [16B [16g
16GJ_ 16B_ 16g_
16GL_ 16B_ 16g_
16GJJ] 16B] 16g]
[16GGLL [16G [16dd [16bb
16GGJ_ 16G_ 16dd_ 16bb_
16GGL_ 16G_ 16dd_ 16bb_
16GGJJ] 16G] 16dd] 16bb]
[16GGLL [16G [16b [16gg
16GGJ_ 16G_ 16b_ 16gg_
16GGL_ 16G_ 16b_ 16gg_
16GGJJ] 16G] 16b] 16gg]
4r
=29[16GGLL [16G [16g
16GGJ_ 16G_ 16g_
16GGL_ 16G_ 16g_
16GGJJ] 16G] 16g]
16ggLL
16ddJ
16ggL
16bb-XJJ
16dddLL
16bb-XJ
16ggL
16bb-XJJ
[16dLL [16a [16cc 16ccc
16dJ_ 16a_ 16cc_ 16aa
16dL_ 16a_ 16cc_ 16ff#X
16dJJ] 16a] 16cc] 16aa
=30
[16gLL [16b-X [16gg
16gJ_ 16b-_ 16gg_
16gL_ 16b-_ 16gg_
16gJJ] 16b-] 16gg]
16gLL
16dJ
16gL
16b-XJJ
16ddLL
16b-XJ
16gL
16b-XJJ
[16DLL [16A [16c 16cc
16DJ_ 16A_ 16c_ 16a
16DL_ 16A_ 16c_ 16f#X
16DJJ] 16A] 16c] 16a
=31
[16gLL
16GGJ 16g_
16AAL 16g_
16BB-XJJ 16g]
16CLL
16DJ
16EL
16F#XJJ
[16GLL
16GJ_ 16gg
16GL_ 16bb-X
16GJJ] 16aa
16ggLL
16ffnJ
16eeL
16ddJJ
=32
[16cc#XLL
16AAJ 16cc#_
16BBL 16cc#_
16C#XJJ 16cc#]
16DLL
16EJ
16F#XL
16G#XJJ
[16ALL
16AJ_ 16ccc#X
16AL_ 16eee
16AJJ] 16ddd
16ccc#XLL
16bb-XJ
16aaL
16ggnJJ
=33
[16DDLL [16D [16ff
16DDJ_ 16D_ 16ff_
16DDL_ 16D_ 16ff_
16DDJJ] 16D] 16ff]
16ddLL
16aJ
16ddL
16ffJJ
16aaLL
16ffJ
16ddL
16ffJJ
[16ALL [16e [16g 16gg
16AJ_ 16e_ 16g_ 16ee
16AL_ 16e_ 16g_ 16cc#X
16AJJ] 16e] 16g] 16ee
=34
[16dLL [16f [16dd
16dJ_ 16f_ 16dd_
16dL_ 16f_ 16dd_
16dJJ] 16f] 16dd]
16dLL
16AJ
16dL
16fJJ
16aLL
16fJ
16dL
16fJJ
[16AALL [16E [16G 16g
16AAJ_ 16E_ 16G_ 16e
16AAL_ 16E_ 16G_ 16c#X
16AAJJ] 16E] 16G] 16e
=35
[16DLL [16F
16DJ_ 16F_ 16d
16DL_ 16F_ 16e
16DJJ] 16F] 16f
16gLL
16aJ
16bL
16cc#XJJ
[16ddLL
16dJ 16dd_
16fL 16dd_
16eJJ 16dd]
16dLL
16cnJ
16BL
16AJJ
=36
[16G#XLL
16G#J_ 16b
16G#L_ 16cc
16G#JJ] 16dd
16eeLL
16ff#XJ
16gg#XL
16aaJJ
[16bbLL
16G#XJ 16bb_
16BL 16bb_
16AJJ 16bb]
16G#XLL
16FnJ
16EL
16DJJ
=37
[16CLL
16CJ_ 16aa
16CL_ 16eee
16CJJ] 16ddd
16cccLL
16bbJ
16aaL
16ggJJ
[16ffLL
16dJ 16ff_
16aL 16ff_
16gJJ 16ff]
16fLL
16eJ
16dL
16cJJ
=38
[16BLL
16BJ_ 16gg
16BL_ 16ddd
16BJJ] 16ccc
16bbLL
16aaJ
16ggL
16ffJJ
[16eeLL
16cJ 16ee_
16gL 16ee_
16fJJ 16ee]
16eLL
16dJ
16cL
16BJJ
=39
[16ALL
16AJ_ 16ff
16AL_ 16ccc
16AJJ] 16bb
16aaLL
16ggJ
16ffL
16eeJJ
[16ddLL
16BJ 16dd_
16fL 16dd_
16eJJ 16dd]
16dLL
16cJ
16BL
16AJJ
=40
[16G#XLL
16G#J_ 16ee
16G#L_ 16bb
16G#JJ] 16aa
16gg#XLL
16ffJ
16eeL
16ddJJ
[16ccLL
16AJ 16cc_
16cL 16cc_
16BJJ 16cc]
16ALL
16GnJ
16FL
16EJJ
=41
[16DLL
16DJ_ 16b-X
16DL_ 16dd
16DJJ_ 16cc
16DLL_ 16b-X
16DJ_ 16a
16DL_ 16g
16DJJ] 16f
[16CLL [16G [16B-X 16e
16CJ_ 16G_ 16B-_ 16f
16CL_ 16G_ 16B-_ 16g
16CJJ_ 16G_ 16B-_ 16a
16CLL_ 16G_ 16B-_ 16b-X
16CJ_ 16G_ 16B-_ 16cc
16CL_ 16G_ 16B-_ 16dd
16CJJ] 16G] 16B-] 16ee
=42
[16fLL [16ff
16fJ] 16ff_
[16ccL 16ff_
16ccJJ] 16ff_
[16aLL 16ff_
16aJ] 16ff_
[16ccL 16ff_
16ccJJ] 16ff]
[16fLL [16aa
16fJ] 16aa_
[16ccL 16aa_
16ccJJ] 16aa]
[16aLL [16ccc
16aJ] 16ccc_
[16ccL 16ccc_
16ccJJ] 16ccc]
=43
[16gLL [16ee
16gJ] 16ee_
[16ccL 16ee_
16ccJJ] 16ee_
[16b-XLL 16ee_
16b-J] 16ee]
[16ccL 16ff
16ccJJ] 16gg
[16fLL [16ff
16fJ] 16ff_
[16ccL 16ff_
16ccJJ] 16ff]
[16aLL
16aJ]
[16ccL
16ccJJ]
=44
[16fLL [16ddd
16fJ] 16ddd_
[16ddL 16ddd_
16ddJJ] 16ddd_
[16b-XLL 16ddd_
16b-J] 16ddd_
[16ddL 16ddd_
16ddJJ] 16ddd]
[16fLL [16ccc
16fJ] 16ccc_
[16ccL 16ccc_
16ccJJ] 16ccc]
[16aLL [16fff
16aJ] 16fff_
[16ccL 16fff_
16ccJJ] 16fff]
=45
[16eLL [16ccc
16eJ] 16ccc_
[16ccL 16ccc_
16ccJJ] 16ccc]
[16gTLL [16bb-X
16gTJ] 16bb-]
[16ccL 16aa
16ccJJ] 16bb-X
[16fLL [16aa
16fJ] 16aa_
[16ccL 16aa_
16ccJJ] 16aa]
[16aLL
16aJ]
[16ccL
16ccJJ]
=46
[16b-XLL [16dd
16b-J_ 16dd]
16b-L_ 16ee
16b-JJ] 16ff
16ggLL
16aaJ
16bb-XL
16cccJJ
16dddLL
16cccJ
16bb-XL
16aaJJ
[16B-XLL [16f 16gg
16B-J_ 16f_ 16ff
16B-L_ 16f_ 16ee
16B-JJ] 16f] 16dd
=47
[16ALL [16f [16cc
16AJ_ 16f_ 16cc]
16AL_ 16f_ 16dd
16AJJ] 16f] 16ee
16ffLL
16ggJ
16aaL
16bb-XJJ
16cccLL
16bb-XJ
16aaL
16ggJJ
[16ALL [16f 16ff
16AJ_ 16f_ 16ee
16AL_ 16f_ 16dd
16AJJ] 16f] 16cc
=48
[16GLL [16f [16b-X
16GJ_ 16f_ 16b-]
16GL_ 16f_ 16cc
16GJJ] 16f] 16dd
16eeLL
16ffJ
16ggL
16aaJJ
16bb-XLL
16aaJ
16ggL
16ffJJ
[16GLL [16e 16ee
16GJ_ 16e_ 16dd
16GL_ 16e_ 16cc
16GJJ] 16e] 16b-X
=49
[16FLL [16f [16a
16FJ_ 16f_ 16a]
16FL_ 16f_ 16b-X
16FJJ] 16f] 16cc
16ddLL
16eeJ
16ffL
16ggJJ
16aaLL
16ggJ
16ffL
16eeJJ
16ddLL
16ccJ
16b-XL
16aJJ
=50
[16FLL [16aa
16FJ] 16aa_
16GL 16aa_
16AJJ 16aa]
16B-XLL
16cJ
16dL
16eJJ
16fLL
16eJ
16dL
16cJJ
16B-XLL [16cc [16aa
16AJ 16cc_ 16aa_
16GL 16cc_ 16aa_
16FJJ 16cc] 16aa]
=51
[16ELL [16cc [16gg
16EJ] 16cc_ 16gg_
16FL 16cc_ 16gg_
16GJJ 16cc] 16gg]
16ALL
16BJ
16cL
16dJJ
16eLL
16dJ
16cL
16BJJ
16ALL [16cc [16gg
16GJ 16cc_ 16gg_
16FL 16cc_ 16gg_
16EJJ 16cc] 16gg]
=52
[16DLL [16cc [16ff
16DJ] 16cc_ 16ff_
16EL 16cc_ 16ff_
16FJJ 16cc] 16ff]
16GLL
16AJ
16BL
16cJJ
16dLL
16cJ
16BL
16AJJ
16GLL [16b [16ff
16FJ 16b_ 16ff_
16EL 16b_ 16ff_
16DJJ 16b] 16ff]
=53
[16CLL [16cc [16ee
16CJ] 16cc_ 16ee_
16DL 16cc_ 16ee_
16EJJ 16cc] 16ee]
16FLL
16GJ
16AL
16BJJ
16cLL
16BJ
16AL
16GJJ
16FLL [16cc [16ee
16EJ 16cc_ 16ee_
16DL 16cc_ 16ee_
16CJJ 16cc] 16ee]
=54
[16FLL [16A 16dd
16FJ_ 16A_ 16d
16FL_ 16A_ 16e
16FJJ_ 16A_ 16f
16FLL_ 16A_ 16g
16FJ_ 16A_ 16a
16FL_ 16A_ 16b
16FJJ_ 16A_ 16cc#X
16FLL_ 16A_ 16dd
16FJ_ 16A_ 16a
16FL_ 16A_ 16b
16FJJ_ 16A_ 16cc#X
16FLL_ 16A_ 16dd
16FJ_ 16A_ 16ee
16FL_ 16A_ 16ff
16FJJ] 16A] 16gg
=55
[16FLL 16aa
16FJ_ 16bb
16FL_ 16ccc
16FJJ_ 16bb
16FLL_ 16aa
16FJ] 16gg
[16GL 16ff
16GJJ] 16ee
[16ALL 16ff
16AJ_ 16gg
16AL_ 16aa
16AJJ_ 16gg
16ALL_ 16ff
16AJ] 16ee
[16F#XL 16dd
16F#JJ] 16cc
=56
16GGLL [16b
16BBJ 16b]
16DL [16gg
16GJJ 16gg]
16GGLL [16ee
16CJ 16ee]
16EL [16cc
16GJJ 16cc]
16GGLL [16dd
16BBJ 16dd]
16DL [16gg
16GJJ 16gg]
16GGLL [16ee
16CJ 16ee]
16EL [16cc
16GJJ 16cc]
=57
[16GGLL [16dd
16GGJ_ 16dd_
16GGL_ 16dd_
16GGJJ] 16dd]
[16GLL [16b [16dd [16gg
16GJ_ 16b_ 16dd_ 16gg_
16GL_ 16b_ 16dd_ 16gg_
16GJJ] 16b] 16dd] 16gg]
[16GGLL [16g
16GGJ_ 16g_
16GGL_ 16g_
16GGJJ] 16g]
4r
=58
16f#XLL
16gJ
16f#XL
16gJJ
16f#XLL
16gJ
16f#XL
16gJJ
16fnLL
16gJ
16fL
16gJJ
16fLL
16gJ
16fL
16gJJ
=59
16eLL [16gg
16gJ 16gg]
16eL [16ee
16gJJ 16ee]
16eLL [16cc
16gJ 16cc_
16eL 16cc_
16gJJ 16cc_
16eLL 16cc_
16gJ 16cc]
16eL 16dd
16gJJ 16ee
16eLL [16dd
16gJ 16dd]
16eL [16cc
16g`JJ 16cc]
=60
16fTLL [16cc
16gTJ 16cc_
16etL 16cc]
16gJJ 16b
16dLL [16b
16gJ 16b_
16eL 16b_
16gJJ 16b]
16fLL
16gJ
16eL
16gJJ
16fLL
16gJ
16dL
16gJJ
=61
16eLL [16gg
16gJ 16gg]
16eL [16ee
16gJJ 16ee]
16eLL [16cc
16gJ 16cc_
16eL 16cc_
16gJJ 16cc_
16eLL 16cc_
16gJ 16cc]
16eL 16dd
16gJJ 16ee
16eLL [16dd
16gJ 16dd]
16eL [16cc
16g`JJ 16cc]
=62
16fTLL [16cc
16gTJ 16cc_
16etL 16cc]
16gJJ 16b
16dLL [16b
16gJ 16b_
16eL 16b_
16gJJ 16b]
16fLL
16gJ
16eL
16gJJ
16fLL
16gJ
16dL
16gJJ
=63
[16ggLL
16EJ 16gg_
16GL 16gg_
16cJJ 16gg]
[16eLL
16eJ_ 16gg
16eL_ 16ee
16eJJ] 16cc
[16aLL
16FJ 16a_
16AL 16a_
16cJJ 16a]
[16fLL
16fJ_ 16a
16fL_ 16cc
16fJJ] 16a
=64
[16ffLL
16DJ 16ff_
16FL 16ff_
16BJJ 16ff]
[16dLL
16dJ_ 16ff
16dL_ 16dd
16dJJ] 16b
[16gLL
16EJ 16g_
16GL 16g_
16BJJ 16g]
[16eLL
16eJ_ 16gg
16eL_ 16bb
16eJJ] 16gg
=65
[16eeeLL
16cJ 16eee_
16eL 16eee_
16aJJ 16eee]
[16ccLL
16ccJ_ 16eee
16ccL_ 16ccc
16ccJJ] 16aa
[16ffLL
16dJ 16ff_
16fL 16ff_
16aJJ 16ff]
[16ddLL
16ddJ_ 16ff
16ddL_ 16aa
16ddJJ] 16ff
=66
[16dddLL
16BJ 16ddd_
16dL 16ddd_
16gJJ 16ddd]
[16bLL
16bJ_ 16ddd
16bL_ 16bb
16bJJ] 16gg
[16eeLL
16cJ 16ee_
16eL 16ee_
16gJJ 16ee]
[16ccLL
16ccJ_ 16ccc
16ccL_ 16gg
16ccJJ] 16ee
=67
[16ddLL
16ddJ_
[16fL [16a 16dd_
16fJJ] 16a] 16dd_
[16fLL [16a 16dd_
16fJ] 16a] 16dd_
[16fL [16a 16dd_
16fJJ] 16a] 16dd]
[16fLL [16a 16cc#X [16dd
16fJ] 16a] 16dd_
[16fL [16a 16dd_
16fJJ] 16a] 16dd]
[16fLL [16a 16cc#X [16dd
16fJ] 16a] 16dd_
[16fL [16a 16dd_
16fJJ] 16a] 16dd]
=68
[16aaLL
16aaJ_
[16F#XL [16c [16e-X 16aa_
16F#JJ] 16c] 16e-] 16aa_
[16F#XLL [16c [16e-X 16aa_
16F#J] 16c] 16e-] 16aa_
[16F#XL [16c [16e-X 16aa_
16F#JJ] 16c] 16e-] 16aa]
[16F#XLL [16c [16e-X 16gg#X [16aa
16F#J] 16c] 16e-] 16aa_
[16F#XL [16c [16e-X 16aa_
16F#JJ] 16c] 16e-] 16aa]
[16F#XLL [16c [16e-X 16gg#X [16aa
16F#J] 16c] 16e-] 16aa_
[16F#XL [16c [16e-X 16aa_
16F#JJ] 16c] 16e-] 16aa]
=69
16GLL [16gg
16eJ 16gg]
16cL 16aa
16eJJ 16bb
16GLL 16ccc
16eJ 16ddd
16cL 16eee
16eJJ 16ddd
16GLL 16ccc
16eJ 16bb
16cL 16aa
16eJJ 16gg
16GLL 16ff
16eJ 16ee
16cL 16dd
16eJJ 16cc
=70
16GTLL [16dd
16fTJ 16dd_
16BtL 16dd_
16fTJJ 16dd_
16GTLL 16dd_
16fTJ 16dd_
16BtL 16dd_
16fTJJ 16dd_
16GTLL 16dd_
16fTJ 16dd_
16BtL 16dd_
16fTJJ 16dd_
16GTLL 16dd_
16fTJ 16dd_
16BtL 16dd_
16fTJJ 16dd]
=71
[16cLL [16e [16cc
16cJ_ 16e_ 16cc_
16cL_ 16e_ 16cc_
16cJJ] 16e] 16cc]
16ccLL
16gJ
16ccL
16eeJJ
16ggLL
16eeJ
16ccL
16eeJJ
[16GLL [16d [16f 16ff
16GJ_ 16d_ 16f_ 16dd
16GL_ 16d_ 16f_ 16b
16GJJ] 16d] 16f] 16dd
=72
[16cLL [16e [16cc
16cJ_ 16e_ 16cc_
16cL_ 16e_ 16cc_
16cJJ] 16e] 16cc]
16cLL
16GJ
16cL
16eJJ
16gLL
16eJ
16cL
16eJJ
[16GGLL [16D [16F 16f
16GGJ_ 16D_ 16F_ 16d
16GGL_ 16D_ 16F_ 16B
16GGJJ] 16D] 16F] 16d
=73
[16CLL [16E [16c
16CJ_ 16E_ 16c_
16CL_ 16E_ 16c_
16CJJ] 16E] 16c]
[16cLL [16ee [16gg [16ccc
16cJ_ 16ee_ 16gg_ 16ccc_
16cL_ 16ee_ 16gg_ 16ccc_
16cJJ] 16ee] 16gg] 16ccc]
[16CCLL [16C [16cc
16CCJ_ 16C_ 16cc_
16CCL_ 16C_ 16cc_
16CCJJ] 16C] 16cc]
4r
=
*-
